X: 1
T: Maggie's Pancakes
R: reel
M: 4/4
L: 1/8
K: Bmin
|:"Bm"fB~B2 fgfe|"G"dBAB GBdB|"A"cAAd AAeA|Aaec "F#m"Aceg|
"Bm"fB~B2 fgfe|"G"dBAB GBdB|"A"cABc defg|"F#m"afec "Bm"B3e:|
|:"Bm"f2dB "G"GBdB|"A"caec dB~B2|"Bm"f2dB "G"GBdB|"F#m"caec Bcde|
"D"fd~d2 fgfe|"G"dBAB GBdB|"A"cABc defg|"F#m"afec "Bm"B3e:|


%%newpage
%% header "Pizza Wizards - Evit Gabriel / Frank's		$P"

